X: 2
T:Miss Corbett's Reel (#202)
M:4/4
L:1/8
S:Aird's Selections 1782-97
R:Reel
K:D
f|D/2D/2D FD ADFD|EcGc EcGc|D/2D/2D FD ADFD|BdAd FD D:|
g|fdag fddf|ecgf ecce|fdag fdec|dBAd FDDg|
fdag fddf|ecgf ecce|fdef fagb|afge fd d||

